X:182
T:Derby Ram
M:C|
L:1/8
K:G
D2D2|\
G3G GGG2|G4 B,3C|D3E  D3B,|G,6 B2|
B3B B3B |c4 B3A |GGG2 FGE2|D4 B,3D|
G4 G,2BB|c4 C2c2|d3D  DDD2|F2FF F3F|G4||
